svg/black/rvn.svg

<svg height="32" viewBox="0 0 32 32" width="32" xmlns="http://www.w3.org/2000/svg"><path d="m16 32c-8.836556 0-16-7.163444-16-16s7.163444-16 16-16 16 7.163444 16 16-7.163444 16-16 16zm-6.5-5 5.6488143-4.1881838-2.0307721-12.6006565zm3.6880689-16.8851204 2.0541143 12.6487965 3.4429757.0601751zm.0816977-.09628 5.5321033 12.8052516 1.6689679-11.7822757zm5.6604855 12.6247264 2.6843539-10.1455142-1.0620705-1.3479212zm1.5172435-11.7100656-.7002663-3.08096281-6.3257383 2.0820569zm-7.061018-1.10722101 6.3607517-2.0820569-2.0541143-.90262582zm-.1050399-.03610504 4.3416507-2.99671772-3.5130023 1.40809628zm.8286484-1.66083151 3.2912513-1.33588621-2.8944338.09628009zm.3734753-1.33588621 2.9411182-.09628009-2.0074299-.90262582zm.9920439-1.05908096 3.2095536 1.4321663-1.8090212-2.11816193zm1.5989412-.60175055 1.7156523 2.04595186.3734753-1.13129103zm1.7856789 2.08205689.8519906.4332604-.4668441-1.58862145zm-1.9374032-2.21444201 2.2320937.91846316c.0245869.01011702.05272-.00161312.062837-.02620001.0070432-.01711671.0036492-.03675568-.0087302-.05051575l-.7572859-.8417474zm2.4159185.96280088.4668442 1.73304157 2.6429066-.72528489c.0384587-.01055409.0610798-.05028676.0505257-.08874539-.0067143-.02446651-.0257761-.04361442-.0502121-.05043886z" fill-rule="evenodd"/></svg>

<svg xmlns="http://www.w3.org/2000/svg" width="32" height="32" viewBox="0 0 32 32">
  <path fill-rule="evenodd" d="M16,32 C7.163444,32 0,24.836556 0,16 C0,7.163444 7.163444,0 16,0 C24.836556,0 32,7.163444 32,16 C32,24.836556 24.836556,32 16,32 Z M9.5,27 L15.1488143,22.8118162 L13.1180422,10.2111597 L9.5,27 Z M13.1880689,10.1148796 L15.2421832,22.7636761 L18.6851589,22.8238512 L13.1880689,10.1148796 Z M13.2697666,10.0185996 L18.8018699,22.8238512 L20.4708378,11.0415755 L13.2697666,10.0185996 Z M18.9302521,22.643326 L21.614606,12.4978118 L20.5525355,11.1498906 L18.9302521,22.643326 Z M20.4474956,10.9332604 L19.7472293,7.85229759 L13.421491,9.93435449 L20.4474956,10.9332604 Z M13.3864776,9.82603939 L19.7472293,7.74398249 L17.693115,6.84135667 L13.3864776,9.82603939 Z M13.2814377,9.78993435 L17.6230884,6.79321663 L14.1100861,8.20131291 L13.2814377,9.78993435 Z M14.1100861,8.12910284 L17.4013374,6.79321663 L14.5069036,6.88949672 L14.1100861,8.12910284 Z M14.4835614,6.79321663 L17.4246796,6.69693654 L15.4172497,5.79431072 L14.4835614,6.79321663 Z M15.4756053,5.73413567 L18.6851589,7.16630197 L16.8761377,5.04814004 L15.4756053,5.73413567 Z M17.0745465,5.13238512 L18.7901988,7.17833698 L19.1636741,6.04704595 L17.0745465,5.13238512 Z M18.8602254,7.21444201 L19.712216,7.64770241 L19.2453719,6.05908096 L18.8602254,7.21444201 Z M16.9228222,5 L19.1549159,5.91846316 C19.1795028,5.92858018 19.2076359,5.91685004 19.2177529,5.89226315 C19.2247961,5.87514644 19.2214021,5.85550747 19.2090227,5.8417474 L18.4517368,5 L16.9228222,5 Z M19.3387407,5.96280088 L19.8055849,7.69584245 L22.4484915,6.97055756 C22.4869502,6.96000347 22.5095713,6.9202708 22.4990172,6.88181217 C22.4923029,6.85734566 22.4732411,6.83819775 22.4488051,6.83137331 L19.3387407,5.96280088 Z"/>
</svg>
